icons/plexis/48/metamorphose2.svg

<svg viewBox="0 0 48 48" xmlns="http://www.w3.org/2000/svg" xmlns:xlink="http://www.w3.org/1999/xlink">
  <linearGradient id="a" gradientTransform="matrix(0 -1 1 0 -.0000015 47.999998)" gradientUnits="userSpaceOnUse" x1="1" x2="47">
    <stop offset="0" stop-color="#e4e4e4"/>
    <stop offset="1" stop-color="#eee"/>
  </linearGradient>
  <path d="m47 24c0 22.703-.297 23-23 23-22.703 0-23-.297-23-23 0-22.703.297-23 23-23 22.703 0 23 .297 23 23z" fill="url(#a)"/>
  <path d="m51.713.766c-1.311 0-2.763.045-4.566.895-3.407-1.049-8.01-.134-9.857 3.141-.679 1.206-1.397 2.569-1.549 4.723-2.26 2.435-3.579 6.31-2.139 9.357.534 1.13 1.152 2.392 2.477 3.609a13.5 14 0 0 0  .088.16c.442 3.815 3.734 8.115 7.746 8.115 1.337 0 2.82-.045 4.674-.945 3.415 1.091 8.09.187 9.945-3.115.659-1.171 1.35-2.492 1.529-4.539 2.485-2.519 3.929-6.999 2.143-10.236-.619-1.122-1.337-2.343-2.809-3.482-.629-3.7-3.821-7.682-7.682-7.682m-15.777 8.539a13.5 14 0 0 0-.018.035c-.004.004-.008.008-.012.012.009-.016.02-.031.029-.047z" opacity=".1" transform="translate(-23 9.234375)"/>
  <ellipse cx="46.9" cy="14.766" fill="#e7df59" rx="13.5" ry="14" transform="translate(-23 9.234375)"/>
  <path d="m23.9 10a13.5 14 0 0 0-.394.01c.161.263.358.546.644.885-1.373-.422-3.15-.363-4.96-.004a13.5 14 0 0 0-7.258 6.658c.238.38.499.771.808 1.209-1.004 1.082-1.804 2.452-2.277 3.906a13.5 14 0 0 0-.063 1.336 13.5 14 0 0 0  1.454 6.31c.351.493.754.99 1.296 1.477.03.283.081.578.143.869a13.5 14 0 0 0 7.291 4.897c-.879-.581-1.763-1.383-2.598-2.553-2.271-3.178-1.131-9.088-2.926-9-.97 0-1.92 1.979-1.95 4.949-.67-1.839-1.1-4.445.574-7.719 1.778-3.49 7.426-5.029 6.566-6.644-.425-.899-2.587-.909-5.21.393-.757.377-1.48.938-2.136 1.611 1.01-1.73 2.817-4.175 7.071-4.652 3.819-.429 8.245 3.539 9.065 1.902.487-.866-.723-2.72-3.249-4.233-.36-.216-.751-.395-1.168-.547 1.952.09 4.677.668 7.016 3.94 2.271 3.18 1.131 9.09 2.925 9 .973 0 1.929-1.99 1.95-4.97a13.5 14 0 0 0-12.614-9.03zm1.1 11c-2.209 0-4 1.791-4 4 0 2.21 1.791 4 4 4 2.21 0 4-1.79 4-4 0-2.209-1.79-4-4-4zm12.34 1.809c-.06 1.035-.31 2.183-.842 3.451-1.517 3.608-6.968 5.55-6.016 7.1.362.65 1.668.73 3.364.081a13.5 14 0 0 0 3.554-9.441 13.5 14 0 0 0-.06-1.191zm-15.744 10.931c-.376-.021-.661.09-.815.4-.446.789.541 2.406 2.645 3.835a13.5 14 0 0 0  .474.025 13.5 14 0 0 0  7.24-2.187c-.406.094-.83.174-1.294.227-3.104.35-6.606-2.208-8.25-2.3z" opacity=".1"/>
  <path d="m56.56 13.766c-1.794.088-.654-5.822-2.926-9-2.674-3.74-5.852-3.96-7.802-3.96 1.951-1 3.49-1.04 4.876-1.04 4.326 0 7.822 5 7.802 9-.015 3-.975 5-1.951 5z" fill="#9776aa" transform="translate(-23 9.234375)"/>
  <path d="m52.48 23.13c-.952-1.549 4.499-3.492 6.02-7.098 1.786-4.244.411-7.176-.545-8.908 1.784 1.232 2.571 2.579 3.251 3.81 2.12 3.842-.306 9.446-3.627 11.428-2.491 1.487-4.617 1.634-5.095.768z" fill="#9776aa" transform="translate(-23 9.234375)"/>
  <path d="m42.781 23.902c.822-1.637 5.245 2.33 9.06 1.902 4.495-.504 6.27-3.216 7.246-4.948-.131 2.232-.867 3.619-1.56 4.85-2.163 3.842-8.134 4.446-11.502 2.428-2.526-1.514-3.735-3.366-3.248-4.232z" fill="#9776aa" transform="translate(-23 9.234375)"/>
  <path d="m37.06 15.766c1.794-.088.654 5.822 2.926 9 2.674 3.74 5.852 3.96 7.802 3.96-1.951 1-3.49 1.04-4.876 1.04-4.326 0-7.822-5-7.802-9 .015-3 .975-5 1.951-5z" fill="#9776aa" transform="translate(-23 9.234375)"/>
  <path d="m42.25 6.351c.859 1.615-4.787 3.155-6.566 6.642-2.093 4.103-.9 7.175-.051 8.973-1.721-1.359-2.427-2.807-3.03-4.085-1.885-3.987.948-9.401 4.441-11.136 2.62-1.301 4.781-1.293 5.206-.394z" fill="#9776aa" transform="translate(-23 9.234375)"/>
  <path d="m51.04 5.605c-.822 1.637-5.245-2.33-9.06-1.902-4.495.504-6.27 3.216-7.246 4.948.131-2.232.867-3.619 1.56-4.85 2.163-3.842 8.134-4.446 11.502-2.428 2.526 1.514 3.735 3.366 3.248 4.232z" fill="#9776aa" transform="translate(-23 9.234375)"/>
  <circle cx="24" cy="24" fill="#9776aa" r="4"/>
</svg>

<svg xmlns="http://www.w3.org/2000/svg" viewBox="0 0 48 48">
 <defs>
  <linearGradient id="linearGradient3764" x1="1" x2="47" gradientUnits="userSpaceOnUse" gradientTransform="matrix(0,-1,1,0,-1.5e-6,47.999998)">
   <stop style="stop-color:#e4e4e4;stop-opacity:1"/>
   <stop offset="1" style="stop-color:#eee;stop-opacity:1"/>
  </linearGradient>
 </defs>
 <g>
  
  
  
 </g>
 <g>
  <path d="m 47,24 C 47,46.703 46.703,47 24,47 1.297,47 1,46.703 1,24 1,1.297 1.297,1 24,1 46.703,1 47,1.297 47,24 z" style="fill:url(#linearGradient3764);fill-opacity:1"/>
 </g>
 <g>
  
 </g>
 <g transform="translate(-23,9.234375)">
  <path d="m 51.713 0.766 c -1.311 0 -2.763 0.045 -4.566 0.895 -3.407 -1.049 -8.01 -0.134 -9.857 3.141 -0.679 1.206 -1.397 2.569 -1.549 4.723 -2.26 2.435 -3.579 6.31 -2.139 9.357 0.534 1.13 1.152 2.392 2.477 3.609 a 13.5 14 0 0 0 0.088 0.16 c 0.442 3.815 3.734 8.115 7.746 8.115 1.337 0 2.82 -0.045 4.674 -0.945 3.415 1.091 8.09 0.187 9.945 -3.115 0.659 -1.171 1.35 -2.492 1.529 -4.539 2.485 -2.519 3.929 -6.999 2.143 -10.236 c -0.619 -1.122 -1.337 -2.343 -2.809 -3.482 -0.629 -3.7 -3.821 -7.682 -7.682 -7.682 m -15.777 8.539 a 13.5 14 0 0 0 -0.018 0.035 c -0.004 0.004 -0.008 0.008 -0.012 0.012 0.009 -0.016 0.02 -0.031 0.029 -0.047 z" style="fill:#000;opacity:0.1;fill-opacity:1;stroke:none"/>
 </g>
 <g>
  <ellipse ry="14" rx="13.5" cy="14.766" cx="46.9" transform="translate(-23,9.234375)" style="fill:#e7df59;opacity:1;fill-opacity:1;stroke:none"/>
  <path d="M 23.9 10 A 13.5 14 0 0 0 23.506 10.01 C 23.667 10.273 23.864 10.556 24.15 10.895 C 22.777 10.473 21 10.532 19.19 10.891 A 13.5 14 0 0 0 11.932 17.549 C 12.17 17.929 12.431 18.32 12.74 18.758 C 11.736 19.84 10.936 21.21 10.463 22.664 A 13.5 14 0 0 0 10.4 24 A 13.5 14 0 0 0 11.854 30.31 C 12.205 30.803 12.608 31.3 13.15 31.787 C 13.18 32.07 13.231 32.365 13.293 32.656 A 13.5 14 0 0 0 20.584 37.553 C 19.705 36.972 18.821 36.17 17.986 35 C 15.715 31.822 16.855 25.912 15.06 26 C 14.09 26 13.14 27.979 13.11 30.949 C 12.44 29.11 12.01 26.504 13.684 23.23 C 15.462 19.74 21.11 18.201 20.25 16.586 C 19.825 15.687 17.663 15.677 15.04 16.979 C 14.283 17.356 13.56 17.917 12.904 18.59 C 13.914 16.86 15.721 14.415 19.975 13.938 C 23.794 13.509 28.22 17.477 29.04 15.84 C 29.527 14.974 28.317 13.12 25.791 11.607 C 25.431 11.391 25.04 11.212 24.623 11.06 C 26.575 11.15 29.3 11.728 31.639 15 C 33.91 18.18 32.77 24.09 34.564 24 C 35.537 24 36.493 22.01 36.514 19.03 A 13.5 14 0 0 0 23.9 10 z M 25 21 C 22.791 21 21 22.791 21 25 C 21 27.21 22.791 29 25 29 C 27.21 29 29 27.21 29 25 C 29 22.791 27.21 21 25 21 z M 37.34 22.809 C 37.28 23.844 37.03 24.992 36.498 26.26 C 34.981 29.868 29.53 31.81 30.482 33.36 C 30.844 34.01 32.15 34.09 33.846 33.441 A 13.5 14 0 0 0 37.4 24 A 13.5 14 0 0 0 37.34 22.809 z M 21.596 33.74 C 21.22 33.719 20.935 33.83 20.781 34.14 C 20.335 34.929 21.322 36.546 23.426 37.975 A 13.5 14 0 0 0 23.9 38 A 13.5 14 0 0 0 31.14 35.813 C 30.734 35.907 30.31 35.987 29.846 36.04 C 26.742 36.39 23.24 33.832 21.596 33.74 z" style="fill:#000;opacity:0.1;fill-opacity:1;stroke:none"/>
  <path d="m 56.56 13.766 c -1.794 0.088 -0.654 -5.822 -2.926 -9 -2.674 -3.74 -5.852 -3.96 -7.802 -3.96 1.951 -1 3.49 -1.04 4.876 -1.04 4.326 0 7.822 5 7.802 9 -0.015 3 -0.975 5 -1.951 5 z" transform="translate(-23,9.234375)" style="fill:#9776aa;opacity:1;fill-opacity:1;stroke:none"/>
  <path d="m 52.48 23.13 c -0.952 -1.549 4.499 -3.492 6.02 -7.098 1.786 -4.244 0.411 -7.176 -0.545 -8.908 1.784 1.232 2.571 2.579 3.251 3.81 2.12 3.842 -0.306 9.446 -3.627 11.428 -2.491 1.487 -4.617 1.634 -5.095 0.768 z" transform="translate(-23,9.234375)" style="fill:#9776aa;opacity:1;fill-opacity:1;stroke:none"/>
  <path d="m 42.781 23.902 c 0.822 -1.637 5.245 2.33 9.06 1.902 4.495 -0.504 6.27 -3.216 7.246 -4.948 -0.131 2.232 -0.867 3.619 -1.56 4.85 -2.163 3.842 -8.134 4.446 -11.502 2.428 -2.526 -1.514 -3.735 -3.366 -3.248 -4.232 z" transform="translate(-23,9.234375)" style="fill:#9776aa;opacity:1;fill-opacity:1;stroke:none"/>
  <path d="m 37.06 15.766 c 1.794 -0.088 0.654 5.822 2.926 9 2.674 3.74 5.852 3.96 7.802 3.96 -1.951 1 -3.49 1.04 -4.876 1.04 -4.326 0 -7.822 -5 -7.802 -9 0.015 -3 0.975 -5 1.951 -5 z" transform="translate(-23,9.234375)" style="fill:#9776aa;opacity:1;fill-opacity:1;stroke:none"/>
  <path d="m 42.25 6.351 c 0.859 1.615 -4.787 3.155 -6.566 6.642 -2.093 4.103 -0.9 7.175 -0.051 8.973 -1.721 -1.359 -2.427 -2.807 -3.03 -4.085 -1.885 -3.987 0.948 -9.401 4.441 -11.136 2.62 -1.301 4.781 -1.293 5.206 -0.394 z" transform="translate(-23,9.234375)" style="fill:#9776aa;opacity:1;fill-opacity:1;stroke:none"/>
  <path d="m 51.04 5.605 c -0.822 1.637 -5.245 -2.33 -9.06 -1.902 -4.495 0.504 -6.27 3.216 -7.246 4.948 0.131 -2.232 0.867 -3.619 1.56 -4.85 2.163 -3.842 8.134 -4.446 11.502 -2.428 2.526 1.514 3.735 3.366 3.248 4.232 z" transform="translate(-23,9.234375)" style="fill:#9776aa;opacity:1;fill-opacity:1;stroke:none"/>
  <circle r="4" cy="24" cx="24" style="fill:#9776aa;opacity:1;fill-opacity:1;stroke:none"/>
 </g>
</svg>
